newicons/netmeds.svg

<?xml version="1.0" encoding="UTF-8"?><svg id="a" xmlns="http://www.w3.org/2000/svg" viewBox="0 0 48 48"><defs><style>.c{fill:none;stroke:#fff;stroke-linecap:round;stroke-linejoin:round;}</style></defs><path id="b" class="c" d="M22.0262,9.316c-6.9426-2.3501-14.4746,1.3761-16.8234,8.3229l-.0007.0022c-2.3462,6.9466,1.379,14.4813,8.3211,16.8301l12.4496,4.2125c6.9423,2.3508,14.4748-1.3748,16.8241-8.3213.0003-.0009.0006-.0019.0009-.0028,2.3462-6.9466-1.379-14.4813-8.3211-16.8301l-12.4506-4.2135ZM23.714,9.8869v10.8268h-9.7529v10.2458h9.7539v6.9612M33.5309,38.9306v-7.9711h9.011M42.3469,20.7137h-8.816v-7.5051"/></svg>

<svg xmlns="http://www.w3.org/2000/svg" xml:space="preserve" id="svg1" version="1.1" viewBox="0 0 48 48"><defs id="defs1"><style id="style1">.a{fill:none;stroke:#fff;stroke-linecap:round;stroke-linejoin:round}</style></defs><path id="path2" d="M22.026 9.314A13.272 13.28 0 0 0 5.2 17.64a13.272 13.28 0 0 0 8.322 16.832l12.451 4.213A13.272 13.28 0 0 0 42.8 30.36a13.272 13.28 0 0 0-8.322-16.832Zm1.688.571v10.828H13.96V30.96h9.755v6.962m9.817 1.01V30.96h9.012m-.195-10.247h-8.817v-7.506" style="color:#000;fill:none;fill-opacity:.362891;stroke:#fff;stroke-width:1stroke-linecap:round;stroke-linejoin:round;stroke-opacity:1;-inkscape-stroke:none"/></svg>
